src/assets/filled/Coin.svg

<?xml version="1.0" encoding="UTF-8"?>
<svg width="24" height="24" viewBox="0 0 24 24" xmlns="http://www.w3.org/2000/svg">
 <path d="m12 22.75c-4 0-7.25-2.87-7.25-6.4v-3.7c0-0.41 0.34-0.75 0.75-0.75s0.75 0.34 0.75 0.75c0 2.62 2.47 4.6 5.75 4.6s5.75-1.98 5.75-4.6c0-0.41 0.34-0.75 0.75-0.75s0.75 0.34 0.75 0.75v3.7c0 3.53-3.25 6.4-7.25 6.4zm-5.75-6.29c0.07 2.65 2.62 4.79 5.75 4.79s5.68-2.14 5.75-4.79c-1.3 1.41-3.36 2.29-5.75 2.29s-4.44-0.88-5.75-2.29z"/>
 <path d="m12 13.75c-2.76 0-5.24-1.24-6.45-3.24-0.52-0.85-0.79999-1.84-0.79999-2.86 0-1.72 0.77-3.34 2.16-4.56 1.36-1.19 3.17-1.84 5.09-1.84s3.72 0.65 5.09 1.83c1.39 1.23 2.16 2.85 2.16 4.57 0 1.02-0.28 2-0.8 2.86-1.21 2-3.69 3.24-6.45 3.24zm0-11c-1.56 0-3.02 0.52-4.11 1.48-1.06 0.92-1.64 2.14-1.64 3.42 0 0.75 0.19999 1.45 0.57999 2.08 0.95 1.56 2.93 2.52 5.17 2.52s4.22-0.97 5.17-2.52c0.39-0.63 0.58-1.33 0.58-2.08 0-1.28-0.58-2.5-1.65-3.44-1.09-0.94-2.54-1.46-4.1-1.46z"/>
 <path d="m12 18.75c-4.13 0-7.25-2.62-7.25-6.1v-5c0-3.53 3.25-6.4 7.25-6.4 1.92 0 3.72 0.65 5.09 1.83 1.39 1.23 2.16 2.85 2.16 4.57v5c0 3.48-3.12 6.1-7.25 6.1zm0-16c-3.17 0-5.75 2.2-5.75 4.9v5c0 2.62 2.47 4.6 5.75 4.6s5.75-1.98 5.75-4.6v-5c0-1.28-0.58-2.5-1.65-3.44-1.09-0.94-2.54-1.46-4.1-1.46z"/>
</svg>

<svg width="24" height="24" viewBox="0 0 24 24"  xmlns="http://www.w3.org/2000/svg">
<path d="M12 22.75C8 22.75 4.75 19.88 4.75 16.35V12.65C4.75 12.24 5.09 11.9 5.5 11.9C5.91 11.9 6.25 12.24 6.25 12.65C6.25 15.27 8.72 17.25 12 17.25C15.28 17.25 17.75 15.27 17.75 12.65C17.75 12.24 18.09 11.9 18.5 11.9C18.91 11.9 19.25 12.24 19.25 12.65V16.35C19.25 19.88 16 22.75 12 22.75ZM6.25 16.46C6.32 19.11 8.87 21.25 12 21.25C15.13 21.25 17.68 19.11 17.75 16.46C16.45 17.87 14.39 18.75 12 18.75C9.61 18.75 7.56 17.87 6.25 16.46Z" />
<path d="M12 13.75C9.24 13.75 6.75999 12.51 5.54999 10.51C5.02999 9.66 4.75 8.67 4.75 7.65C4.75 5.93 5.52 4.31 6.91 3.09C8.27 1.9 10.08 1.25 12 1.25C13.92 1.25 15.72 1.9 17.09 3.08C18.48 4.31 19.25 5.93 19.25 7.65C19.25 8.67 18.97 9.65 18.45 10.51C17.24 12.51 14.76 13.75 12 13.75ZM12 2.75C10.44 2.75 8.98001 3.27 7.89001 4.23C6.83001 5.15 6.25 6.37 6.25 7.65C6.25 8.4 6.44999 9.1 6.82999 9.73C7.77999 11.29 9.76 12.25 12 12.25C14.24 12.25 16.22 11.28 17.17 9.73C17.56 9.1 17.75 8.4 17.75 7.65C17.75 6.37 17.17 5.15 16.1 4.21C15.01 3.27 13.56 2.75 12 2.75Z" />
<path d="M12 18.75C7.87 18.75 4.75 16.13 4.75 12.65V7.65C4.75 4.12 8 1.25 12 1.25C13.92 1.25 15.72 1.9 17.09 3.08C18.48 4.31 19.25 5.93 19.25 7.65V12.65C19.25 16.13 16.13 18.75 12 18.75ZM12 2.75C8.83 2.75 6.25 4.95 6.25 7.65V12.65C6.25 15.27 8.72 17.25 12 17.25C15.28 17.25 17.75 15.27 17.75 12.65V7.65C17.75 6.37 17.17 5.15 16.1 4.21C15.01 3.27 13.56 2.75 12 2.75Z" />
</svg>
